src/assets/social-media/discord.svg

<svg width="25" height="24" viewBox="0 0 25 24" fill="none" xmlns="http://www.w3.org/2000/svg">
<path d="M10.2213 10.068C9.53735 10.068 8.99734 10.668 8.99734 11.4C8.99734 12.132 9.54935 12.732 10.2213 12.732C10.9053 12.732 11.4453 12.132 11.4453 11.4C11.4573 10.668 10.9053 10.068 10.2213 10.068ZM14.6013 10.068C13.9173 10.068 13.3773 10.668 13.3773 11.4C13.3773 12.132 13.9293 12.732 14.6013 12.732C15.2853 12.732 15.8253 12.132 15.8253 11.4C15.8253 10.668 15.2853 10.068 14.6013 10.068Z" fill="url(#paint0_radial_7462_3948)"/>
<path d="M20.4334 0H4.35336C2.99736 0 1.89336 1.104 1.89336 2.472V18.696C1.89336 20.064 2.99736 21.168 4.35336 21.168H17.9614L17.3254 18.948L18.8614 20.376L20.3134 21.72L22.8934 24V2.472C22.8934 1.104 21.7894 0 20.4334 0ZM15.8014 15.672C15.8014 15.672 15.3694 15.156 15.0094 14.7C16.5814 14.256 17.1814 13.272 17.1814 13.272C16.6894 13.596 16.2214 13.824 15.8014 13.98C15.2014 14.232 14.6254 14.4 14.0614 14.496C12.9094 14.712 11.8534 14.652 10.9534 14.484C10.2694 14.352 9.68136 14.16 9.18936 13.968C8.91336 13.86 8.61336 13.728 8.31336 13.56C8.27736 13.536 8.24136 13.524 8.20536 13.5C8.18136 13.488 8.16936 13.476 8.15736 13.464C7.94136 13.344 7.82136 13.26 7.82136 13.26C7.82136 13.26 8.39736 14.22 9.92136 14.676C9.56136 15.132 9.11736 15.672 9.11736 15.672C6.46536 15.588 5.45736 13.848 5.45736 13.848C5.45736 9.984 7.18536 6.852 7.18536 6.852C8.91336 5.556 10.5574 5.592 10.5574 5.592L10.6774 5.736C8.51736 6.36 7.52136 7.308 7.52136 7.308C7.52136 7.308 7.78536 7.164 8.22936 6.96C9.51336 6.396 10.5334 6.24 10.9534 6.204C11.0254 6.192 11.0854 6.18 11.1574 6.18C11.8894 6.084 12.7174 6.06 13.5814 6.156C14.7214 6.288 15.9454 6.624 17.1934 7.308C17.1934 7.308 16.2454 6.408 14.2054 5.784L14.3734 5.592C14.3734 5.592 16.0174 5.556 17.7454 6.852C17.7454 6.852 19.4734 9.984 19.4734 13.848C19.4734 13.848 18.4534 15.588 15.8014 15.672Z" fill="url(#paint1_radial_7462_3948)"/>
<defs>
<radialGradient id="paint0_radial_7462_3948" cx="0" cy="0" r="1" gradientUnits="userSpaceOnUse" gradientTransform="translate(12.4113 10.068) rotate(90) scale(2.664 6.828)">
<stop stop-color="white"/>
<stop offset="1" stop-color="white" stop-opacity="0.3"/>
</radialGradient>
<radialGradient id="paint1_radial_7462_3948" cx="0" cy="0" r="1" gradientUnits="userSpaceOnUse" gradientTransform="translate(12.3934) rotate(90) scale(24 21)">
<stop stop-color="white"/>
<stop offset="1" stop-color="white" stop-opacity="0.3"/>
</radialGradient>
</defs>
</svg>

<svg fill="none" height="24" viewBox="0 0 25 24" width="25" xmlns="http://www.w3.org/2000/svg" xmlns:xlink="http://www.w3.org/1999/xlink"><linearGradient id="a"><stop offset="0" stop-color="#fff"/><stop offset="1" stop-color="#fff" stop-opacity=".3"/></linearGradient><radialGradient id="b" cx="0" cy="0" gradientTransform="matrix(0 2.664 -6.828 0 12.4113 10.068)" gradientUnits="userSpaceOnUse" r="1" xlink:href="#a"/><radialGradient id="c" cx="0" cy="0" gradientTransform="matrix(0 24 -21 0 12.3934 0)" gradientUnits="userSpaceOnUse" r="1" xlink:href="#a"/><path d="m10.2213 10.068c-.68395 0-1.22396.6-1.22396 1.332s.55201 1.332 1.22396 1.332c.684 0 1.224-.6 1.224-1.332.012-.732-.54-1.332-1.224-1.332zm4.38 0c-.684 0-1.224.6-1.224 1.332s.552 1.332 1.224 1.332c.684 0 1.224-.6 1.224-1.332s-.54-1.332-1.224-1.332z" fill="url(#b)"/><path d="m20.4334 0h-16.08004c-1.356 0-2.46 1.104-2.46 2.472v16.224c0 1.368 1.104 2.472 2.46 2.472h13.60804l-.636-2.22 1.536 1.428 1.452 1.344 2.58 2.28v-21.528c0-1.368-1.104-2.472-2.46-2.472zm-4.632 15.672s-.432-.516-.792-.972c1.572-.444 2.172-1.428 2.172-1.428-.492.324-.96.552-1.38.708-.6.252-1.176.42-1.74.516-1.152.216-2.208.156-3.108-.012-.684-.132-1.27204-.324-1.76404-.516-.276-.108-.576-.24-.876-.408-.036-.024-.072-.036-.108-.06-.024-.012-.036-.024-.048-.036-.216-.12-.336-.204-.336-.204s.576.96 2.1 1.416c-.36.456-.804.996-.804.996-2.652-.084-3.66-1.824-3.66-1.824 0-3.864 1.728-6.996 1.728-6.996 1.728-1.296 3.37204-1.26 3.37204-1.26l.12.144c-2.16004.624-3.15604 1.572-3.15604 1.572s.264-.144.708-.348c1.284-.564 2.30404-.72 2.72404-.756.072-.012.132-.024.204-.024.732-.096 1.56-.12 2.424-.024 1.14.132 2.364.468 3.612 1.152 0 0-.948-.9-2.988-1.524l.168-.192s1.644-.036 3.372 1.26c0 0 1.728 3.132 1.728 6.996 0 0-1.02 1.74-3.672 1.824z" fill="url(#c)"/></svg>
